!!!!SEGMENT: pl-cz--iii-586_rygall-ignacy--omni-die-dic-mariae.krn
!!!cenid: 17xx:1111
!!!COM: Rygall, Ignacy
!!!COM-rismID: pe30110281
!!!CDT: <1750->1799
!!!CNT:
!!!OTL: Omni die dic Mariae
!!!PDT:
!!!AGN:
!!!SMS-siglum: PL-CZ
!!!SMS-shelfmark: III-586
!!!SMS-shelfwork: W
!!!SMS-variant:
!!!SMS-altvar:
!!!NIFC-rismSourceID: 300001127
!!!NIFC-islandoraID: pl-cz:39350
!!!URL-pdf-islandora: https://repozytorium.nifc.pl/islandora/object/pl-cz%3A39350/datastream/PDF/view
!!!URL-scan:
!!!ONB-nifc:
!!!AIN: 1 cor 1 soprn 2 violn
!!!key: G
**kern	**dynam	**kern	**dynam	**kern	**dynam	**kern	**text	**kern	**kern
*part6	*part6	*part5	*part5	*part4	*part4	*part3	*part3	*part2	*part1
*staff6	*	*staff5	*	*staff4	*	*staff3	*staff3	*staff2	*staff1
*I"Baſso	*	*I"Violino Secondo	*	*I"Violino 1mo	*	*I"Soprano	*	*I"Cornu 2do in G	*I"Cornu 1mo in G
*I'[vlc]	*	*I'vl II	*	*I'vl I	*	*I'S	*	*I'cor II	*I'cor I
*ICstr	*	*ICstr	*	*ICstr	*	*ICvox	*	*ICbras	*ICbras
*I[cello]	*	*Ivioln	*	*Ivioln	*	*Isoprn	*	*IIcor	*Icor
*clefF4	*	*clefG2	*	*clefG2	*	*clefC1	*	*clefG2	*clefG2
*	*	*	*	*	*	*	*	*ITrd3c5	*ITrd3c5
*G:	*	*G:	*	*G:	*	*G:	*	*G:	*G:
*k[f#]	*	*k[f#]	*	*k[f#]	*	*k[f#]	*	*k[f#]	*k[f#]
*M3/4	*	*M3/4	*	*M3/4	*	*M3/4	*	*M3/4	*M3/4
!LO:TX:a:B:t=allegretto	!	!LO:TX:a:B:t=allegretto	!	!LO:TX:a:B:t=allegretto	!	!LO:TX:a:B:t=allegretto	!	!LO:TX:a:B:t=allegretto	!LO:TX:a:B:t=allegretto
4r	.	4B/	.	4g/	.	4r	.	4r	4r
=1	=1	=1	=1	=1	=1	=1	=1	=1	=1
!	!LO:DY:b:t=p&colon;	!	!	!	!	!	!	!	!
4G\	p	4B/	.	4g/	.	2.r	.	2.r	2.r
4r	.	4A/	.	4f#/	.	.	.	.	.
4D\	.	4c/	.	4a/	.	.	.	.	.
=2	=2	=2	=2	=2	=2	=2	=2	=2	=2
4r	.	4c/	.	4a/	.	2.r	.	2.r	2.r
4G\	.	4B/	.	4g/	.	.	.	.	.
4GG/	.	4g/	.	4b/	.	.	.	.	.
=3	=3	=3	=3	=3	=3	=3	=3	=3	=3
4G\	.	4g/	.	4b\	.	2.r	.	2.r	2.r
4r	.	4f#/	.	4a\	.	.	.	.	.
4D\	.	4a/	.	4cc\	.	.	.	.	.
=4	=4	=4	=4	=4	=4	=4	=4	=4	=4
4r	.	4a\	.	4cc\	.	2.r	.	2.r	2.r
4GG/	.	4g\	.	4b\	.	.	.	.	.
!	!LO:DY:b:t=for	!	!	!	!	!	!	!	!
4G\	f	4b\	.	4dd\	.	.	.	.	.
=5	=5	=5	=5	=5	=5	=5	=5	=5	=5
*2\right	*	*	*	*2\right	*	*2\right	*	*2\right	*2\right
4G\	.	4b\	.	2.dd\	.	2.r	.	4g\	4b\
4F#\	.	4a\	.	.	.	.	.	4d/	4a\
4A\	.	4cc\	.	.	.	.	.	4a\	4cc\
=6	=6	=6	=6	=6	=6	=6	=6	=6	=6
4A\	.	4cc\	.	2.dd\	.	2.r	.	4a\	4cc\
4G\	.	4b\	.	.	.	.	.	4g\	4b\
4B\	.	4g\	.	.	.	.	.	4g\	4b\
=7	=7	=7	=7	=7	=7	=7	=7	=7	=7
4B\	.	4g\	.	2.dd\	.	2.r	.	4g\	4b\
4A\	.	4f#\	.	.	.	.	.	4d\	4a\
4c\	.	4a\	.	.	.	.	.	4a\	4cc\
!LO:LB:g=original	!	!	!	!	!	!	!	!	!
=8	=8	=8	=8	=8	=8	=8	=8	=8	=8
4c\	.	4a\	.	2dd\	.	2.r	.	4a\	4cc\
4B\	.	4g\	.	.	.	.	.	4g\	4b\
4B\	.	4d/	.	4r	.	.	.	4r	4r
=9	=9	=9	=9	=9	=9	=9	=9	=9	=9
2c\	.	4e/	.	4ee\	.	2.r	.	2.r	2.r
.	.	8g/L	.	(8gg\L	.	.	.	.	.
.	.	8f#/	.	8ff#\)	.	.	.	.	.
4B\	.	8e/	.	(8ee\	.	.	.	.	.
.	.	8d/J	.	8dd\J)	.	.	.	.	.
!	!	!LO:LB:g=original	!	!LO:LB:g=original	!	!	!	!	!
=10	=10	=10	=10	=10	=10	=10	=10	=10	=10
2A\	.	4c/	.	4cc\	.	2.r	.	2.r	2.r
.	.	8e/L	.	(8ee\L	.	.	.	.	.
.	.	8d/	.	8dd\)	.	.	.	.	.
4G\	.	8c/	.	(8cc\	.	.	.	.	.
.	.	8B/J	.	8b\J)	.	.	.	.	.
=11	=11	=11	=11	=11	=11	=11	=11	=11	=11
4C/	.	8A/L	.	8b\L	.	2.r	.	4a\	4cc\
.	.	16c/L	.	8a\J	.	.	.	.	.
.	.	16A/JJ	.	.	.	.	.	.	.
4D\	.	4B/	.	4g\	.	.	.	4g\	4b\
4DD/	.	4c/	.	4f#\	.	.	.	4d\	4a\
=12	=12	=12	=12	=12	=12	=12	=12	=12	=12
4G\	.	2B/	.	2g\	.	2.r	.	4B/	4g\
4GG/	.	.	.	.	.	.	.	4r	4r
4B\	.	4d/	.	4dd\	.	.	.	4r	4r
!	!	!	!	!	!	!	!	!LO:LB:g=original	!LO:LB:g=original
=13	=13	=13	=13	=13	=13	=13	=13	=13	=13
2c\	.	4e/	.	4ee\	.	2.r	.	2.r	2.r
.	.	8g/L	.	(8gg\L	.	.	.	.	.
.	.	8f#/	.	8ff#\)	.	.	.	.	.
4B\	.	8e/	.	(8ee\	.	.	.	.	.
.	.	8d/J	.	8dd\J)	.	.	.	.	.
=14	=14	=14	=14	=14	=14	=14	=14	=14	=14
2A\	.	4c/	.	4cc\	.	2.r	.	2.r	2.r
.	.	8e/L	.	(8ee\L	.	.	.	.	.
.	.	8d/	.	8dd\)	.	.	.	.	.
4G\	.	8c/	.	(8cc\	.	.	.	.	.
.	.	8B/J	.	8b\J)	.	.	.	.	.
=15	=15	=15	=15	=15	=15	=15	=15	=15	=15
4C\	.	8A/L	.	8a\L	.	2.r	.	4a\	4cc\
.	.	16c/L	.	16cc\L	.	.	.	.	.
.	.	16A/JJ	.	16a\JJ	.	.	.	.	.
4D\	.	4G/	.	4g\	.	.	.	4g\	4b\
4DD/	.	4A/	.	4f#\	.	.	.	4d\	4a\
=16	=16	=16	=16	=16	=16	=16	=16	=16	=16
4G\	.	2G/	.	2g\	.	4r	.	2B/	2g\
4GG/	.	.	.	.	.	4r	.	.	.
!	!LO:DY:b:t=p&colon;	!	!LO:DY:b:t=p&colon;	!	!LO:DY:b:t=p&colon;	!	!	!	!
4r	p	4B/	p	4g\	p	4g\	Om-	4r	4r
=17	=17	=17	=17	=17	=17	=17	=17	=17	=17
4G\	.	4B/	.	4g/	.	(4g\	.	2.r	2.r
4r	.	4A/	.	4f#/	.	4f#\)	.	.	.
4D\	.	4c/	.	4a/	.	4a\	-ni	.	.
!LO:LB:g=original	!	!	!	!	!	!	!	!	!
=18	=18	=18	=18	=18	=18	=18	=18	=18	=18
4r	.	4c/	.	4a/	.	4a\	diae	2.r	2.r
4G\	.	4B/	.	4g/	.	4g\	.	.	.
4GG/	.	4g/	.	4b/	.	4b\	[[dic]]	.	.
!	!	!LO:LB:g=original	!	!	!	!	!	!	!
=19	=19	=19	=19	=19	=19	=19	=19	=19	=19
4G\	.	4g/	.	4b\	.	(4b\	dic	2.r	2.r
4r	.	4f#/	.	4a\	.	4a\)	.	.	.
4D\	.	4a/	.	4cc\	.	4cc\	Ma-	.	.
!	!	!	!	!LO:LB:g=original	!	!	!	!	!
=20	=20	=20	=20	=20	=20	=20	=20	=20	=20
4r	.	4a\	.	4cc\	.	(4cc\	-ri[[ae]]-	2.r	2.r
4G\	.	4g\	.	4b\	.	4b\)	.	.	.
4GG/	.	4b\	.	4dd\	.	4dd\	-ae	.	.
=21	=21	=21	=21	=21	=21	=21	=21	=21	=21
4G\	.	4b\	.	2.dd\	.	2.dd\	me-	4g\	4b\
4F#\	.	4a\	.	.	.	.	.	4d\	4a\
4A\	.	4cc\	.	.	.	.	.	4a\	4cc\
!	!	!	!	!	!	!LO:LB:g=original	!	!	!
=22	=22	=22	=22	=22	=22	=22	=22	=22	=22
4A\	.	4cc\	.	2.dd\	.	2.dd\	.	4a\	4cc\
4G\	.	4b\	.	.	.	.	.	4g\	4b\
4B\	.	4g\	.	.	.	.	.	4g\	4b\
=23	=23	=23	=23	=23	=23	=23	=23	=23	=23
4B\	.	4g/	.	2.dd\	.	2.dd\	.	4g\	4b\
4A\	.	4f#/	.	.	.	.	.	4d\	4a\
4c\	.	4a/	.	.	.	.	.	4a\	4cc\
=24	=24	=24	=24	=24	=24	=24	=24	=24	=24
4c\	.	4a/	.	2.dd\	.	2.dd\	.	4a\	4cc\
4B\	.	4g/	.	.	.	.	.	4g\	4b\
4G\	.	4b/	.	.	.	.	.	4r	4r
=25	=25	=25	=25	=25	=25	=25	=25	=25	=25
!	!	!	!	!	!	!	!	!LO:TX:b:t=Pausen	!LO:TX:b:t=Pause
4r	.	4g/	.	4b\	.	4b\	.	2.r	2.r
4E\	.	4g/	.	4b\	.	4b\	.	.	.
4D\	.	4g/	.	4b\	.	4b\	-a	.	.
=26	=26	=26	=26	=26	=26	=26	=26	=26	=26
4C#X/	.	2e/	.	2a\	.	2a\	lau-	2.r	2.r
4AA/	.	.	.	.	.	.	.	.	.
4C#/	.	4e/	.	4g\	.	4g\	-des	.	.
=27	=27	=27	=27	=27	=27	=27	=27	=27	=27
4D\	.	4d/	.	4f#/	.	4f#/	a-	2.r	2.r
4A\	.	8f#/L	.	8a/L	.	8a/L	.	.	.
.	.	8e/	.	8g/	.	8g/	.	.	.
4AA/	.	8d/	.	8f#/	.	8f#/	.	.	.
.	.	8c#X/J	.	8e/J	.	8e/J	-ni-	.	.
!LO:LB:g=original	!	!	!	!	!	!	!	!	!
=28	=28	=28	=28	=28	=28	=28	=28	=28	=28
4D\	.	2d/	.	2d/	.	2d/	-a	2.r	2.r
4DD/	.	.	.	.	.	.	.	.	.
4D\	.	4f#/	.	4a\	.	4a\	e-	.	.
=29	=29	=29	=29	=29	=29	=29	=29	=29	=29
4E\	.	4g/	.	4a\	.	4a\	.	2.r	2.r
4D\	.	4f#/	.	4a\	.	4a\	.	.	.
4C#X\	.	4e/	.	4a\	.	4a\	-jus	.	.
=30	=30	=30	=30	=30	=30	=30	=30	=30	=30
2D\	.	4f#/	.	8a\L	.	(8a\L	fe-	2.r	2.r
.	.	.	.	8dd\J	.	8dd\J	.	.	.
.	.	4f#/	.	4a\	.	4a\)	-sta	.	.
4F#\	.	4f#/	.	4a\	.	4a\	.	.	.
!	!	!LO:LB:g=original	!	!LO:LB:g=original	!	!LO:LB:g=original	!	!	!
=31	=31	=31	=31	=31	=31	=31	=31	=31	=31
4E\	.	4g/	.	4a\	.	4a\	e-	2.r	2.r
4D\	.	4f#/	.	4a\	.	4a\	.	.	.
4C#X\	.	4e/	.	4a\	.	4a\	-jus	.	.
=32	=32	=32	=32	=32	=32	=32	=32	=32	=32
4D\	.	4f#/	.	8a\L	.	8a\L	ge-	2.r	2.r
.	.	.	.	8dd\J	.	8dd\J	.	.	.
4DD/	.	4f#/	.	4a\	.	4a\	-sta	.	.
4r	.	4f#/	.	4a\	.	4a\	.	.	.
=33	=33	=33	=33	=33	=33	=33	=33	=33	=33
2B\	.	4d/	.	4dd\	.	4dd\	co-	2.r	2.r
*	*	*	*	*Xtuplet	*	*Xtuplet	*	*	*
.	.	8f#/L	.	12ff#\L	.	12ff#\L	.	.	.
.	.	.	.	12ee\	.	12ee\	.	.	.
.	.	8d/	.	.	.	.	.	.	.
.	.	.	.	12dd\J	.	12dd\J	.	.	.
4A\	.	8c#X/	.	12cc#X\L	.	12cc#X\L	.	.	.
.	.	.	.	12b\	.	12b\	.	.	.
.	.	8B/J	.	.	.	.	.	.	.
.	.	.	.	12a\J	.	12a\J	.	.	.
=34	=34	=34	=34	=34	=34	=34	=34	=34	=34
2G\	.	4B/	.	4b\	.	4b\	.	2.r	2.r
.	.	8d/L	.	12dd\L	.	12dd\L	.	.	.
.	.	.	.	12cc\	.	12cc\	.	.	.
.	.	8B/	.	.	.	.	.	.	.
.	.	.	.	12b\J	.	12b\J	.	.	.
4E\	.	8A/	.	12a\L	.	12a\L	.	.	.
.	.	.	.	12g\	.	12g\	.	.	.
.	.	8f#/J	.	.	.	.	.	.	.
.	.	.	.	12f#\J	.	12f#\J	-le	.	.
=35	=35	=35	=35	=35	=35	=35	=35	=35	=35
!	!	!	!	!LO:TX:t=P:problem=mixed beam	!	!LO:TX:t=P:problem=mixed beam	!	!	!
4G\	.	8g/L	.	8g\L	.	8e\L	de-	2.r	2.r
.	.	8g/J	.	8ee\J	.	8ee\J	-vo-	.	.
4A\	.	4f#/	.	4dd\	.	4dd\	-tiſ-	.	.
4AA/	.	4e/	.	4cc#X\	.	4cc#X\	-si-	.	.
=36	=36	=36	=36	=36	=36	=36	=36	=36	=36
4D\	.	4f#/	.	4dd\	.	2dd\	-ma	2.r	2.r
4D\	.	4f#/	.	4dd\	.	.	.	.	.
4E\	.	4gM/	.	4cc#X\	.	4r	.	.	.
=37	=37	=37	=37	=37	=37	=37	=37	=37	=37
4F#\	.	4a\	.	4dd\	.	4dd\	e-	2.r	2.r
4F#\	.	4dd\	.	4aa\	.	4.dd\	.	.	.
4F#\	.	4dd\	.	4aa\	.	.	.	.	.
.	.	.	.	.	.	8cc#X\	-jus	.	.
!	!	!	!	!	!	!LO:LB:g=original	!	!	!
=38	=38	=38	=38	=38	=38	=38	=38	=38	=38
4G\	.	4dd\	.	4bb\	.	8b\L	fe-	2.r	2.r
.	.	.	.	.	.	8a#X\J	.	.	.
4G\	.	4dd\	.	4bb\	.	2b\	-sta	.	.
4G\	.	4dd\	.	4bb\	.	.	.	.	.
!LO:LB:g=original	!	!	!	!	!	!	!	!	!
=39	=39	=39	=39	=39	=39	=39	=39	=39	=39
4C#X/	.	4ee\	.	4bb\	.	4ee\	e-	2.r	2.r
4C#/	.	4ee\	.	4bb\	.	12gg\L	.	.	.
.	.	.	.	.	.	12ff#\	.	.	.
.	.	.	.	.	.	12ee\J	.	.	.
4C#/	.	4ee\	.	4bb\	.	12dd\L	-jus	.	.
.	.	.	.	.	.	12cc#X\	.	.	.
.	.	.	.	.	.	12b\J	.	.	.
!	!	!	!	!LO:LB:g=original	!	!	!	!	!
=40	=40	=40	=40	=40	=40	=40	=40	=40	=40
4F#\	.	4ee\	.	4aa\	.	8a\L	ge-	2.r	2.r
.	.	.	.	.	.	8g#X\J	.	.	.
4F#\	.	4ee\	.	4aa\	.	2a\	-ſta	.	.
4F#\	.	4ee\	.	4aa\	.	.	.	.	.
=41	=41	=41	=41	=41	=41	=41	=41	=41	=41
4BB/	.	4dd\	.	4aa\	.	4dd\	e-	2.r	2.r
4BB/	.	4dd\	.	4aa\	.	12ff#\L	.	.	.
.	.	.	.	.	.	12ee\	.	.	.
.	.	.	.	.	.	12dd\J	.	.	.
4BB/	.	4dd\	.	4aa\	.	12cc#X\L	-jus	.	.
.	.	.	.	.	.	12b\	.	.	.
.	.	.	.	.	.	12a\J	.	.	.
!	!	!LO:LB:g=original	!	!	!	!	!	!	!
=42	=42	=42	=42	=42	=42	=42	=42	=42	=42
4E\	.	4dd\	.	4gg\	.	8g\L	fe-	2.r	2.r
.	.	.	.	.	.	8f#\J	.	.	.
4E\	.	4dd\	.	4gg\	.	2g\	-ſta	.	.
4E\	.	4dd\	.	4gg\	.	.	.	.	.
=43	=43	=43	=43	=43	=43	=43	=43	=43	=43
4AA/	.	4cc#X\	.	4gg\	.	4g\	e-	2.r	2.r
4AA/	.	4cc#\	.	4gg\	.	12ee\L	.	.	.
.	.	.	.	.	.	12dd\	.	.	.
.	.	.	.	.	.	12cc#X\J	.	.	.
4AA/	.	4cc#\	.	4gg\	.	12b\L	-jus	.	.
.	.	.	.	.	.	12a\	.	.	.
.	.	.	.	.	.	12g\J	.	.	.
=44	=44	=44	=44	=44	=44	=44	=44	=44	=44
4AA/	.	4dd\	.	4ff#\	.	4f#\	fe-	2.r	2.r
4AA/	.	4dd\	.	4ff#\	.	12dd\L	.	.	.
.	.	.	.	.	.	12cc\	.	.	.
.	.	.	.	.	.	12b\J	.	.	.
4AA/	.	4dd\	.	4ff#\	.	12a\L	-ſta	.	.
.	.	.	.	.	.	12g\	.	.	.
.	.	.	.	.	.	12f#\J	.	.	.
!	!	!	!	!	!	!LO:LB:g=original	!	!	!
=45	=45	=45	=45	=45	=45	=45	=45	=45	=45
4AA/	.	4ee\	.	4gg\	.	4g\	e-	2.r	2.r
4AA/	.	4ee\	.	4gg\	.	12ee\L	.	.	.
.	.	.	.	.	.	12dd\	.	.	.
.	.	.	.	.	.	12cc\J	.	.	.
4AA/	.	4ee\	.	4gg\	.	12b\L	-jus	.	.
.	.	.	.	.	.	12a\	.	.	.
.	.	.	.	.	.	12g\J	.	.	.
=46	=46	=46	=46	=46	=46	=46	=46	=46	=46
4r	.	4dd\	.	4ff#\	.	(8f#\L	ge-	2.r	2.r
.	.	.	.	.	.	8g\J)	.	.	.
4D\	.	4dd\	.	4aa\	.	4a\	-sta	.	.
4DD/	.	4r	.	4a/	.	4r	.	.	.
=47	=47	=47	=47	=47	=47	=47	=47	=47	=47
2B\	.	4d/	.	4dd\	.	4dd\	co-	2.r	2.r
.	.	8f#/L	.	8ff#\L	.	8ff#\L	.	.	.
.	.	8e/	.	8ee\	.	8ee\	.	.	.
4A\	.	8d/	.	8dd\	.	8dd\	.	.	.
.	.	8c#X/J	.	8cc#X\J	.	8cc#X\J	-le	.	.
=48	=48	=48	=48	=48	=48	=48	=48	=48	=48
2G\	.	4B/	.	4b\	.	4b\	co-	2.r	2.r
.	.	8d/L	.	8dd\L	.	8dd\L	.	.	.
.	.	8c/	.	8cc\	.	8cc\	.	.	.
4F#\	.	8B/	.	8b\	.	8b\	.	.	.
.	.	8A/J	.	8a\J	.	8a\J	-le	.	.
!LO:LB:g=original	!	!	!	!	!	!	!	!	!
=49	=49	=49	=49	=49	=49	=49	=49	=49	=49
4G\	.	4e/	.	8a\L	.	8a\L	de-	2.r	2.r
.	.	.	.	8g\J	.	8g\J	.	.	.
4A\	.	4d/	.	4f#\	.	4f#\	.	.	.
4AA/	.	4c#X/	.	4e\	.	4e\	-vo-	.	.
!	!	!	!	!LO:LB:g=original	!	!	!	!	!
=50	=50	=50	=50	=50	=50	=50	=50	=50	=50
2D\	.	4A/	.	4f#/	.	8d/L	-tiſ-	2.r	2.r
.	.	.	.	.	.	16e/L	.	.	.
.	.	.	.	.	.	16f#/JJ	.	.	.
.	.	4r	.	4r	.	16g\LL	-si-	.	.
.	.	.	.	.	.	16a\	.	.	.
.	.	.	.	.	.	16b\	.	.	.
.	.	.	.	.	.	16cc#X\JJ	.	.	.
4r	.	4r	.	4aa\	.	4dd\	-ma	.	.
=51	=51	=51	=51	=51	=51	=51	=51	=51	=51
4G\	.	8b\L	.	8gg\L	.	8a\L	de-	2.r	2.r
.	.	8g\J	.	8ee\J	.	8g\J	.	.	.
4A\	.	4f#\	.	4dd\	.	4f#\	.	.	.
4AA/	.	4e\	.	4cc#X\	.	4e\	-vo-	.	.
!	!	!LO:LB:g=original	!	!LO:LB:g=original	!	!	!	!	!
=52	=52	=52	=52	=52	=52	=52	=52	=52	=52
2D\	.	4f#/	.	4f#\ 4dd	.	8d/L	-tiſ-	2.r	2.r
.	.	.	.	.	.	16e/L	.	.	.
.	.	.	.	.	.	16f#/JJ	.	.	.
.	.	4r	.	4r	.	16g\LL	.	.	.
.	.	.	.	.	.	16a\	.	.	.
.	.	.	.	.	.	16b\	.	.	.
.	.	.	.	.	.	16cc#X\JJ	.	.	.
4r	.	4r	.	4r	.	16dd\LL	.	.	.
.	.	.	.	.	.	16ee\	.	.	.
.	.	.	.	.	.	16ff#\	-si-	.	.
.	.	.	.	.	.	16gg\JJ	.	.	.
=53	=53	=53	=53	=53	=53	=53	=53	=53	=53
*tremolo	*	*	*	*	*	*	*	*	*
8F#\L	.	2ff#\	.	2aa\	.	2aa\	-ma	2.r	2.r
8F#\	.	.	.	.	.	.	.	.	.
8F#\	.	.	.	.	.	.	.	.	.
8F#\	.	.	.	.	.	.	.	.	.
8F#\	.	8ee\L	.	8gg\L	.	8gg\L	de-	.	.
8F#\J	.	8dd\J	.	8ff#\J	.	8ff#\J	.	.	.
*Xtremolo	*	*	*	*	*	*	*	*	*
=54	=54	=54	=54	=54	=54	=54	=54	=54	=54
4G\	.	4g/	.	4ee\	.	16ff#\LL	.	2.r	2.r
.	.	.	.	.	.	16ee\	.	.	.
.	.	.	.	.	.	16gg\	-vo-	.	.
.	.	.	.	.	.	16ee\JJ	.	.	.
4A\	.	4f#/	.	4dd\	.	4dd\	-tiſ-	.	.
!	!LO:DY:b:t=for	!	!	!	!LO:DY:b:t=f&colon;	!	!	!	!
4AA/	f	4e/	.	4cc#X\	f	4cc#X\	-si-	.	.
=55	=55	=55	=55	=55	=55	=55	=55	=55	=55
.	.	.	.	.	.	4qqcc/	.	.	.
8D\L	.	4f#/	.	4dd\	.	2dd\	-ma	2.r	2.r
8AA\	.	.	.	.	.	.	.	.	.
8D\	.	4r	.	4r	.	.	.	.	.
8AA\	.	.	.	.	.	.	.	.	.
8D\	.	4r	.	8ff#\L	.	4r	.	.	.
8AA\J	.	.	.	8aa\J	.	.	.	.	.
=56	=56	=56	=56	=56	=56	=56	=56	=56	=56
*	*	*^	*	*	*	*	*	*	*
!	!	!	!	!LO:DY:b:t=f&colon;	!	!	!	!	!	!
8E\L	.	4a/	4e\	f	8gg\L	.	2.r	.	2.r	2.r
8AA\	.	.	.	.	8ee\	.	.	.	.	.
8G\	.	4a/	4e\	.	8dd\	.	.	.	.	.
8AA\	.	.	.	.	8cc#X\	.	.	.	.	.
8G\	.	4a/	4g\	.	8bM\	.	.	.	.	.
8AA\J	.	.	.	.	8a\J	.	.	.	.	.
=57	=57	=57	=57	=57	=57	=57	=57	=57	=57	=57
8F#\L	.	4a/	4f#\	.	4dd\	.	2.r	.	2.r	2.r
8AA\	.	.	.	.	.	.	.	.	.	.
8D\	.	4a/	4f#\	.	4ff#\	.	.	.	.	.
8AA\	.	.	.	.	.	.	.	.	.	.
8D\	.	4a/	4f#\	.	8aa\L	.	.	.	.	.
8AA\J	.	.	.	.	8ff#\J	.	.	.	.	.
!LO:LB:g=original	!	!	!	!	!	!	!	!	!	!
=58	=58	=58	=58	=58	=58	=58	=58	=58	=58	=58
8E\L	.	4a/	4e\	.	8gg\L	.	2.r	.	2.r	2.r
8AA\	.	.	.	.	8ee\	.	.	.	.	.
8G\	.	4a/	4e\	.	8dd\	.	.	.	.	.
8AA\	.	.	.	.	8cc#X\	.	.	.	.	.
8G\	.	4a/	4g\	.	8b\	.	.	.	.	.
8AA\J	.	.	.	.	8a\J	.	.	.	.	.
!	!	!	!	!	!LO:LB:g=original	!	!	!	!	!
*	*	*v	*v	*	*	*	*	*	*	*
=59	=59	=59	=59	=59	=59	=59	=59	=59	=59
2B\	.	4f#/	.	4dd\	.	2.r	.	2.r	2.r
.	.	8f#/L	.	8ff#\L	.	.	.	.	.
.	.	8e/	.	8ee\	.	.	.	.	.
4A\	.	8d/	.	8dd\	.	.	.	.	.
.	.	8c#X/J	.	8cc#X\J	.	.	.	.	.
=60	=60	=60	=60	=60	=60	=60	=60	=60	=60
2G\	.	4B/	.	4b\	.	2.r	.	2.r	2.r
.	.	8d/L	.	8dd\L	.	.	.	.	.
.	.	8c/	.	8cc\	.	.	.	.	.
4F#\	.	8B/	.	8b\	.	.	.	.	.
.	.	8A/J	.	8a\J	.	.	.	.	.
=61	=61	=61	=61	=61	=61	=61	=61	=61	=61
8F#\L	.	8A/L	.	8a\L	.	2.r	.	2.r	2.r
8G\J	.	8B/J	.	8g\J	.	.	.	.	.
4A\	.	4A/	.	4f#\	.	.	.	.	.
4AA/	.	4A/	.	4e\	.	.	.	.	.
!	!	!LO:LB:g=original	!	!	!	!	!	!	!
=62	=62	=62	=62	=62	=62	=62	=62	=62	=62
2D\	.	2A/	.	2f#/	.	2.r	.	2.r	2.r
4F#\	.	4A/	.	4a/	.	.	.	.	.
=63	=63	=63	=63	=63	=63	=63	=63	=63	=63
2B\	.	4d/	.	4dd\	.	2.r	.	2.r	2.r
.	.	8f#/L	.	8ff#\L	.	.	.	.	.
.	.	8e/	.	8ee\	.	.	.	.	.
4A\	.	8d/	.	8dd\	.	.	.	.	.
.	.	8c#X/J	.	8cc#X\J	.	.	.	.	.
=64	=64	=64	=64	=64	=64	=64	=64	=64	=64
2G\	.	4B/	.	4b\	.	2.r	.	2.r	2.r
.	.	8d/L	.	8dd\L	.	.	.	.	.
.	.	8c/	.	8cc\	.	.	.	.	.
4F#\	.	8B/	.	8b\	.	.	.	.	.
.	.	8A/J	.	8a\J	.	.	.	.	.
=65	=65	=65	=65	=65	=65	=65	=65	=65	=65
4G\	.	8A/L	.	8a/L	.	2.r	.	2.r	2.r
.	.	8B/J	.	8g/J	.	.	.	.	.
4A\	.	4A/	.	4f#/	.	.	.	.	.
4AA/	.	4A/	.	4e/	.	.	.	.	.
=66	=66	=66	=66	=66	=66	=66	=66	=66	=66
4D\	.	2A/ 2f#	.	2d/	.	2.r	.	2.r	2.r
4AA\	.	.	.	.	.	.	.	.	.
!	!	!	!LO:DY:b:t=p&colon;	!	!	!	!	!	!
4DD/	.	4r	p	4r	.	.	.	.	.
=67	=67	=67	=67	=67	=67	=67	=67	=67	=67
!	!LO:DY:b:t=p&colon;	!	!	!	!LO:DY:b:t=p&colon;	!	!	!	!
2G#X\	p	2B/ 2e	.	2dd\	p	2dd\	o-	2.r	2.r
4G#\	.	4B/ 4e	.	8ee\L	.	8ee\L	-mni	.	.
.	.	.	.	8b\J	.	8b\J	.	.	.
!LO:LB:g=original	!	!	!	!LO:LB:g=original	!	!	!	!	!
=68	=68	=68	=68	=68	=68	=68	=68	=68	=68
4r	.	4B/ 4e	.	4dd\	.	4dd\	di-	2.r	2.r
4A\	.	4c/ 4e	.	4cc\	.	4cc\	-e	.	.
4AA/	.	4r	.	4r	.	4r	.	.	.
!	!	!	!	!	!	!LO:LB:g=original	!	!	!
=69	=69	=69	=69	=69	=69	=69	=69	=69	=69
2F#\	.	2e-X/	.	2cc\	.	2cc\	dic	2.r	2.r
4F#\	.	4d/	.	8dd\L	.	8dd\L	Ma-	.	.
.	.	.	.	8a\J	.	8a\J	.	.	.
=70	=70	=70	=70	=70	=70	=70	=70	=70	=70
4r	.	4d/	.	4cc\	.	4cc\	-ri-	2.r	2.r
4G\	.	4d/	.	4b\	.	4b\	-ae	.	.
4GG/	.	4d/	.	4b\	.	4r	.	.	.
=71	=71	=71	=71	=71	=71	=71	=71	=71	=71
2C\	.	(8d/L	.	(8b\L	.	8b\L	dic	2.r	2.r
.	.	8c/)	.	8a\)	.	8a\	.	.	.
.	.	(8e/	.	(8cc\	.	8cc\	.	.	.
.	.	8d/)	.	8b\)	.	8b\	.	.	.
4C\	.	(8c/	.	(8a\	.	8a\	.	.	.
.	.	8B/J)	.	8g\J)	.	8g\J	Ma-	.	.
!	!	!LO:LB:g=original	!	!	!	!	!	!	!
=72	=72	=72	=72	=72	=72	=72	=72	=72	=72
4D\	.	4B/	.	4g/	.	(4g\	-ri-	2.r	2.r
4DD/	.	4A/	.	4f#/	.	4f#\)	.	.	.
4r	.	4B/	.	4g/	.	4g\	-ae	.	.
=73	=73	=73	=73	=73	=73	=73	=73	=73	=73
4G\	.	4B/	.	4g/	.	(4g\	o-	2.r	2.r
4r	.	4A/	.	4f#/	.	4f#\)	.	.	.
4D\	.	4c/	.	4a/	.	4a\	-mni	.	.
=74	=74	=74	=74	=74	=74	=74	=74	=74	=74
4r	.	4c/	.	4a/	.	(4a\	dic	2.r	2.r
4G\	.	4B/	.	4g/	.	4g\)	.	.	.
4GG/	.	4g/	.	4b\	.	4b\	dic	.	.
=75	=75	=75	=75	=75	=75	=75	=75	=75	=75
4G\	.	4g/	.	4b\	.	(4b\	dic	2.r	2.r
4r	.	4f#/	.	4a\	.	4a\)	.	.	.
4D\	.	4a/	.	4cc\	.	4cc\	Ma-	.	.
=76	=76	=76	=76	=76	=76	=76	=76	=76	=76
4r	.	4a\	.	4cc\	.	(4cc\	-ri-	2.r	2.r
4G\	.	4g\	.	4b\	.	4b\)	[[ae	.	.
4GG/	.	4b\	.	4dd\	.	4dd\	ma	.	.
=77	=77	=77	=77	=77	=77	=77	=77	=77	=77
4G\	.	4b\	.	2.dd\	.	2.dd\	me]]-	4g\	4b\
4F#\	.	4a\	.	.	.	.	.	4d\	4a\
4A\	.	4cc\	.	.	.	.	.	4a\	4cc\
!LO:LB:g=original	!	!	!	!LO:LB:g=original	!	!LO:LB:g=original	!	!LO:LB:g=original	!
=78	=78	=78	=78	=78	=78	=78	=78	=78	=78
4A\	.	4cc\	.	2.dd\	.	2.dd\	.	4a\	4cc\
4G\	.	4b\	.	.	.	.	.	4g\	4b\
4B\	.	4g\	.	.	.	.	.	4g\	4b\
=79	=79	=79	=79	=79	=79	=79	=79	=79	=79
4B\	.	4g\	.	2.dd\	.	2.dd\	.	4g\	4b\
4A\	.	4f#\	.	.	.	.	.	4d\	4a\
4c\	.	4a\	.	.	.	.	.	4a\	4cc\
!	!	!	!	!	!	!	!	!	!LO:LB:g=original
=80	=80	=80	=80	=80	=80	=80	=80	=80	=80
4c\	.	4a\	.	2.dd\	.	2.dd\	.	4a\	4cc\
4B\	.	4g\	.	.	.	.	.	4g\	4b\
4B\	.	4d/	.	.	.	.	.	4r	4r
=81	=81	=81	=81	=81	=81	=81	=81	=81	=81
2c\	.	4e/	.	4ee\	.	4ee\	.	2.r	2.r
.	.	8g/L	.	8gg\L	.	(8gg\L	.	.	.
.	.	8f#/	.	8ff#\	.	8ff#\)	.	.	.
4B\	.	8e/	.	8ee\	.	(8ee\	.	.	.
.	.	8d/J	.	8dd\J	.	8dd\J)	-a	.	.
=82	=82	=82	=82	=82	=82	=82	=82	=82	=82
2A\	.	4c/	.	4cc\	.	4cc\	lau-	2.r	2.r
.	.	8e/L	.	8ee\L	.	8ee\L	.	.	.
.	.	8d/	.	8dd\	.	8dd\	.	.	.
4G\	.	8c/	.	8cc\	.	8cc\	.	.	.
.	.	8B/J	.	8b\J	.	8b\J	-des	.	.
!	!	!LO:LB:g=original	!	!	!	!	!	!	!
=83	=83	=83	=83	=83	=83	=83	=83	=83	=83
8BB\L	.	8d/L	.	8b\L	.	(8b\L	a-	4a\	4cc\
8C\J	.	8c/J	.	8a\J	.	(8a\J)	.	.	.
4D\	.	4B/	.	4g\	.	4g\)	-mi-	4g\	4b\
4DD/	.	4A/	.	4f#\	.	4f#\	.	4d/	4a\
=84	=84	=84	=84	=84	=84	=84	=84	=84	=84
.	.	.	.	.	.	8qqf#/	.	.	.
4G\	.	2B/	.	2g\	.	2g\	-ma	4B/	4g\
4D\	.	.	.	.	.	.	.	8B/L	8g\L
.	.	.	.	.	.	.	.	8B/J	8g\J
4GG/	.	4r	.	4r	.	4r	.	4B/	4g\
=85	=85	=85	=85	=85	=85	=85	=85	=85	=85
!	!	!	!	!	!	!	!	!LO:TX:a:t=6	!LO:TX:a:t=6
4B\	.	4g/	.	4dd\	.	4dd\	e-	2.r	2.r
4B\	.	4g/	.	4dd\	.	4gg\	-jus	.	.
4B\	.	4g/	.	4dd\	.	4ffn\	.	.	.
=86	=86	=86	=86	=86	=86	=86	=86	=86	=86
4c\	.	4g/	.	4ee\	.	8ee\L	fes-	2.r	2.r
.	.	.	.	.	.	8dd#X\J	.	.	.
4c\	.	4g/	.	4ee\	.	2ee\	-ta	.	.
4c\	.	4g/	.	4ee\	.	.	.	.	.
!	!	!	!	!	!	!LO:LB:g=original	!	!	!
=87	=87	=87	=87	=87	=87	=87	=87	=87	=87
4F#\	.	4a/	.	4ee\	.	4ee\	e-	2.r	2.r
4F#\	.	4a/	.	4ee\	.	12aa\L	.	.	.
.	.	.	.	.	.	12gg\	.	.	.
.	.	.	.	.	.	12ff#\J	.	.	.
4F#\	.	4a/	.	4ee\	.	12ee\L	-jus	.	.
.	.	.	.	.	.	12dd\	.	.	.
.	.	.	.	.	.	12cc#X\J	.	.	.
!LO:LB:g=original	!	!	!	!LO:LB:g=original	!	!	!	!	!
=88	=88	=88	=88	=88	=88	=88	=88	=88	=88
4B\	.	4a/	.	4dd\	.	8dd\L	ge-	2.r	2.r
.	.	.	.	.	.	8cc\J	.	.	.
4B\	.	4a/	.	4dd\	.	2dd\	-ſta	.	.
4B\	.	4a/	.	4dd\	.	.	.	.	.
=89	=89	=89	=89	=89	=89	=89	=89	=89	=89
4E\	.	4g/	.	4dd\	.	4dd\	e-	2.r	2.r
4E\	.	4g/	.	4dd\	.	12gg\L	.	.	.
.	.	.	.	.	.	12ff#\	.	.	.
.	.	.	.	.	.	12ee\J	.	.	.
4E\	.	4g/	.	4dd\	.	12dd\L	-jus	.	.
.	.	.	.	.	.	12cc\	.	.	.
.	.	.	.	.	.	12b\J	.	.	.
=90	=90	=90	=90	=90	=90	=90	=90	=90	=90
4A\	.	4g/	.	4cc\	.	(8cc\L	fe-	2.r	2.r
.	.	.	.	.	.	8b\J)	.	.	.
4A\	.	4g/	.	4cc\	.	2cc\	-ſta	.	.
4A\	.	4g/	.	4cc\	.	.	.	.	.
=91	=91	=91	=91	=91	=91	=91	=91	=91	=91
4D\	.	4f#/	.	4cc\	.	4cc\	e-	4d/	4d/ 4a
4D\	.	4f#/	.	4cc\	.	12aa\L	.	4r	4r
.	.	.	.	.	.	12gg\	.	.	.
.	.	.	.	.	.	12ff#\J	.	.	.
4D\	.	4f#/	.	4cc\	.	12ee\L	.	4r	4r
.	.	.	.	.	.	12dd\	.	.	.
.	.	.	.	.	.	12cc\J	.	.	.
=92	=92	=92	=92	=92	=92	=92	=92	=92	=92
4D\	.	4g/	.	4b\	.	4b\	.	4g\	4b\
4D\	.	4g/	.	4b\	.	12gg\L	.	4r	4r
.	.	.	.	.	.	12ff#\	.	.	.
.	.	.	.	.	.	12ee\J	.	.	.
4D\	.	4g/	.	4b\	.	12dd\L	.	4r	4r
.	.	.	.	.	.	12cc\	.	.	.
.	.	.	.	.	.	12b\J	.	.	.
!	!	!	!	!	!	!LO:LB:g=original	!	!LO:LB:g=original	!
=93	=93	=93	=93	=93	=93	=93	=93	=93	=93
4D\	.	4f#/	.	4cc\	.	4cc\	.	4d/	4cc\
4D\	.	4f#/	.	4cc\	.	12aa\L	.	4r	4r
.	.	.	.	.	.	12gg\	.	.	.
.	.	.	.	.	.	12ff#\J	.	.	.
4D\	.	4f#/	.	4cc\	.	12ee\L	-jus	4r	4r
.	.	.	.	.	.	12dd\	.	.	.
.	.	.	.	.	.	12cc\J	.	.	.
=94	=94	=94	=94	=94	=94	=94	=94	=94	=94
2G\	.	8g/L	.	8b\L	.	8b\L	fes-	4g\	4b\
.	.	8a/J	.	8cc\J	.	8cc\J	.	.	.
.	.	4b/	.	4dd\	.	4dd\	-ta	4r	4r
4BB/	.	4b/	.	4dd\	.	4r	.	4r	4r
!	!	!LO:LB:g=original	!	!	!	!	!	!	!
=95	=95	=95	=95	=95	=95	=95	=95	=95	=95
4C/	.	4e/	.	4ee\	.	4ee\	co-	2.r	2.r
4c\	.	8g/L	.	8gg\L	.	(8gg\L	.	.	.
.	.	8f#/	.	8ff#\	.	8ff#\)	.	.	.
4B\	.	8e/	.	8ee\	.	(8ee\	.	.	.
.	.	8d/J	.	8dd\J	.	8dd\J)	.	.	.
=96	=96	=96	=96	=96	=96	=96	=96	=96	=96
2A\	.	4c/	.	4cc\	.	4cc\	.	2.r	2.r
.	.	8e/L	.	8ee\L	.	8ee\L	.	.	.
.	.	8d/	.	8dd\	.	8dd\	.	.	.
4G\	.	8c/	.	8cc\	.	8cc\	.	.	.
.	.	8B/J	.	8b\J	.	8b\J	.	.	.
=97	=97	=97	=97	=97	=97	=97	=97	=97	=97
8BB/L	.	8d/L	.	8b\L	.	8b\L	.	4a\	4cc\
8C/J	.	8c/J	.	8a\J	.	8a\J	.	.	.
4D\	.	4B/	.	4g\	.	4g\	.	4g\	4b\
4DD/	.	4A/	.	4f#\	.	4f#\	.	4d\	4a\
!LO:LB:g=original	!	!	!	!LO:LB:g=original	!	!	!	!	!
!	!	!	!	!	!	!	!	!	!LO:LB:g=original
=98	=98	=98	=98	=98	=98	=98	=98	=98	=98
2GG/	.	4B/	.	4b\	.	8g\L	.	4B/	4g\
.	.	.	.	.	.	16a\L	.	.	.
.	.	.	.	.	.	16b\JJ	.	.	.
.	.	4r	.	4r	.	16cc\LL	.	4r	4r
.	.	.	.	.	.	16dd\	.	.	.
.	.	.	.	.	.	16ee\	.	.	.
.	.	.	.	.	.	16ff#\JJ	.	.	.
4G\	.	4b\	.	4dd\	.	4gg\	-le	4r	4r
=99	=99	=99	=99	=99	=99	=99	=99	=99	=99
4C\	.	8cc\L	.	8ee\L	.	8ee\L	de-	4a\	4cc\
.	.	8a\J	.	8cc\J	.	8cc\J	-vo-	.	.
4D\	.	4g\	.	4b\	.	4b\	-tiſ-	4g\	4b\
4DD/	.	4f#\	.	4a\	.	4a\	-si-	4d\	4a\
!	!	!	!	!	!	!LO:LB:g=original	!	!	!
=100	=100	=100	=100	=100	=100	=100	=100	=100	=100
2GG/	.	4g\	.	4b\	.	8g\L	-ma	4B/	4g\
.	.	.	.	.	.	16a\L	.	.	.
.	.	.	.	.	.	16b\JJ	.	.	.
.	.	4r	.	4r	.	16cc\LL	.	4r	4r
.	.	.	.	.	.	16dd\	.	.	.
.	.	.	.	.	.	16ee\	.	.	.
.	.	.	.	.	.	16ff#\JJ	.	.	.
4G\	.	4b\	.	4gg\	.	4gg\	.	4r	4r
=101	=101	=101	=101	=101	=101	=101	=101	=101	=101
4C\	.	8cc\L	.	8ee\L	.	8ee\L	de-	4a\	4cc\
.	.	8a\J	.	8cc\J	.	16dd\L	-vo-	.	.
.	.	.	.	.	.	16cc\JJ	.	.	.
4D\	.	4g\	.	4b\	.	4b\	-tiſ-	4g\	4b\
4DD/	.	4f#\	.	4a\	.	4a\	-si-	4d\	4a\
=102	=102	=102	=102	=102	=102	=102	=102	=102	=102
*	*	*^	*	*	*	*	*	*	*
!	!LO:DY:b:t=for	!	!	!	!	!	!	!	!	!
8G\L	f	4g\	2ryy	.	4g/	.	2g\	-ma	4B/	4g\
8D\	.	.	.	.	.	.	.	.	.	.
8G\	.	4B/	.	.	4r	.	.	.	4r	4r
8D\	.	.	.	.	.	.	.	.	.	.
8B\	.	4d/	4B\	.	8bb\L	.	4r	.	4r	4r
8D\J	.	.	.	.	8ddd\J	.	.	.	.	.
=103	=103	=103	=103	=103	=103	=103	=103	=103	=103	=103
8A\L	.	4d/	4A\	.	8ccc\L	.	2.r	.	2d\	2a\
8D\	.	.	.	.	8aa\	.	.	.	.	.
8A\	.	4d/	4A\	.	8gg\	.	.	.	.	.
8D\	.	.	.	.	8ff#\	.	.	.	.	.
8c\	.	4d/	4c\	.	8ee\	.	.	.	4a\	4cc\
8D\J	.	.	.	.	8dd\J	.	.	.	.	.
!	!	!	!	!	!	!	!	!	!LO:LB:g=original	!
=104	=104	=104	=104	=104	=104	=104	=104	=104	=104	=104
8B\L	.	2d/	2B\	.	4gg\	.	2.r	.	4g\	4b\
8D\	.	.	.	.	.	.	.	.	.	.
8G\	.	.	.	.	4dd\	.	.	.	4r	4r
8D\	.	.	.	.	.	.	.	.	.	.
8B\	.	4d/	4B\	.	8bb\L	.	.	.	4g\	4r
8D\J	.	.	.	.	8ddd\J	.	.	.	.	.
!	!	!LO:LB:g=original	!	!	!	!	!	!	!	!
=105	=105	=105	=105	=105	=105	=105	=105	=105	=105	=105
8A\L	.	4d/	4A\	.	8ccc\L	.	2.r	.	2d\	2a\
8D\	.	.	.	.	8aa\	.	.	.	.	.
8A\	.	4d/	4A\	.	8gg\	.	.	.	.	.
8D\	.	.	.	.	8ff#\	.	.	.	.	.
8c\	.	4d/	4A\	.	8ee\	.	.	.	4a\	4cc\
8D\J	.	.	.	.	8dd\J	.	.	.	.	.
!	!	!	!LO:LB:g=original	!	!	!	!	!	!	!
=106	=106	=106	=106	=106	=106	=106	=106	=106	=106	=106
4B\	.	2d/	2A\	.	2gg\	.	2.r	.	4g\	4b\
4G\	.	.	.	.	.	.	.	.	4r	4r
4GG/	.	4d/	4B\	.	4dd\	.	.	.	4r	4r
!LO:LB:g=original	!	!	!	!	!	!	!	!	!	!LO:LB:g=original
*	*	*v	*v	*	*	*	*	*	*	*
=107	=107	=107	=107	=107	=107	=107	=107	=107	=107
2c\	.	4e/	.	4ee\	.	2.r	.	2.r	2.r
.	.	8g/L	.	8gg\L	.	.	.	.	.
.	.	8f#/	.	8ff#\	.	.	.	.	.
4B\	.	8e/	.	8ee\	.	.	.	.	.
.	.	8d/J	.	8dd\J	.	.	.	.	.
=108	=108	=108	=108	=108	=108	=108	=108	=108	=108
2A\	.	4c/	.	4cc\	.	2.r	.	2.r	2.r
.	.	8e/L	.	8ee\L	.	.	.	.	.
.	.	8d/	.	8dd\	.	.	.	.	.
4G\	.	8c/	.	8cc\	.	.	.	.	.
.	.	8B/J	.	8b\J	.	.	.	.	.
=109	=109	=109	=109	=109	=109	=109	=109	=109	=109
4C\	.	4c/	.	8a\L	.	2.r	.	4a\	4cc\
.	.	.	.	16cc\L	.	.	.	.	.
.	.	.	.	16a\JJ	.	.	.	.	.
4D\	.	4B/	.	4g\	.	.	.	4g\	4b\
4DD/	.	4A/	.	4f#\	.	.	.	4d\	4a\
=110	=110	=110	=110	=110	=110	=110	=110	=110	=110
4G\	.	2B/	.	2g\	.	2.r	.	2B/	2g\
4D\	.	.	.	.	.	.	.	.	.
4GG/	.	4d/	.	4dd\	.	.	.	4r	4r
=111	=111	=111	=111	=111	=111	=111	=111	=111	=111
!	!	!	!	!	!	!	!	!	!LO:TX:a:t=2
2c\	.	4e/	.	4ee\	.	2.r	.	2.r	2.r
.	.	8g/L	.	8gg\L	.	.	.	.	.
.	.	8f#/	.	8ff#\	.	.	.	.	.
4B\	.	8e/	.	8ee\	.	.	.	.	.
.	.	8d/J	.	8dd\J	.	.	.	.	.
=112	=112	=112	=112	=112	=112	=112	=112	=112	=112
2A\	.	4c/	.	4cc\	.	2.r	.	2.r	2.r
.	.	8e/L	.	8ee\L	.	.	.	.	.
.	.	8d/	.	8dd\	.	.	.	.	.
4G\	.	8c/	.	8cc\	.	.	.	.	.
.	.	8B/J	.	8b\J	.	.	.	.	.
!	!	!	!	!LO:LB:g=original	!	!	!	!	!
=113	=113	=113	=113	=113	=113	=113	=113	=113	=113
4C\	.	4c/	.	4a/	.	2.r	.	4a\	4cc\
4D\	.	4B/	.	4g/	.	.	.	4g\	4b\
4DD/	.	4A/	.	4f#/	.	.	.	4d\	4a\
=114	=114	=114	=114	=114	=114	=114	=114	=114	=114
4G\	.	2B/	.	2g/	.	2.r	.	2B/	2g\
4D\	.	.	.	.	.	.	.	.	.
4GG/	.	4r	.	4r	.	.	.	4r	4r
!	!	!LO:LB:g=original	!	!	!	!	!	!	!
=115||	=115||	=115||	=115||	=115||	=115||	=115||	=115||	=115||	=115||
2E\	.	2g/	.	2b\	.	4b\	con-	2.r	2.r
.	.	.	.	.	.	4g\	.	.	.
4E\	.	4g/	.	4b\	.	4e\	-tem-	.	.
!LO:LB:g=original	!	!	!	!	!	!	!	!	!
=116	=116	=116	=116	=116	=116	=116	=116	=116	=116
4r	.	4r	.	4a\	.	4e/	-pla-	2.r	2.r
4F#\	.	4B/	.	4a\	.	4d#X/	-re	.	.
4F#\	.	4A/	.	4r	.	4ff#\	et	.	.
=117	=117	=117	=117	=117	=117	=117	=117	=117	=117
4r	.	2f#/	.	2a\	.	4ff#\	.	2.r	2.r
4D#X\	.	.	.	.	.	4dd#X\	.	.	.
4D#\	.	4f#/	.	4a\	.	4a\	mi-	.	.
=118	=118	=118	=118	=118	=118	=118	=118	=118	=118
.	.	.	.	.	.	8qqb/	.	.	.
4r	.	4f#/	.	4b\	.	4a\	-ra-	2.r	2.r
4E\	.	4e/	.	4g\	.	4g\	-re	.	.
!	!	!	!	!LO:TX:b:t=VC	!	!	!	!	!
4EE/	.	4r	.	4r	.	4r	.	.	.
!	!	!	!	!LO:LB:g=original	!	!	!	!	!
=119	=119	=119	=119	=119	=119	=119	=119	=119	=119
4e\	.	4g/	.	4cc\	.	4cc\	e-	2.r	2.r
4e\	.	4g/	.	4cc\	.	4cc\	-jus	.	.
4e\	.	4g/	.	4cc\	.	4cc\	.	.	.
=120	=120	=120	=120	=120	=120	=120	=120	=120	=120
4e\	.	4g/	.	4cc\	.	(8.cc\L	cel-	2.r	2.r
.	.	.	.	.	.	32ee\LL	.	.	.
.	.	.	.	.	.	32dd\JJJ)	.	.	.
4e\	.	4g/	.	4cc\	.	4cc\	.	.	.
4e\	.	4g/	.	4b\	.	4b\	-si-	.	.
=121	=121	=121	=121	=121	=121	=121	=121	=121	=121
4e\	.	4f#/	.	4a#X\	.	8a#X\L	-tu-	2.r	2.r
.	.	.	.	.	.	8a#\J	-di-	.	.
4d#X\	.	4f#/	.	4b\	.	4b\	-nem	.	.
4r	.	4r	.	4r	.	4r	.	.	.
=122||:	=122	=122	=122	=122	=122	=122	=122	=122	=122
4d\	.	4f#/	.	4b\	.	4b\	e-	2.r	2.r
4d\	.	4f#/	.	4b\	.	4b\	-jus	.	.
4d\	.	4f#/	.	4b\	.	4b\	.	.	.
=123:||	=123	=123	=123	=123	=123	=123	=123	=123	=123
4d\yy	.	4f#/	.	4b\	.	8.b\L	cel-	2.r	2.r
.	.	.	.	.	.	32dd\LL	.	.	.
.	.	.	.	.	.	32cc\JJJ	.	.	.
4d\yy	.	4f#/	.	4b\	.	4b\	.	.	.
4d\yy	.	4f#/	.	4a\	.	4a\	-si-	.	.
=124	=124	=124	=124	=124	=124	=124	=124	=124	=124
4d\	.	4e/	.	4g#X\	.	8g#X\L	-tu-	2.r	2.r
.	.	.	.	.	.	8g#\J	-di-	.	.
4c\	.	4e/	.	4a\	.	4a\	-nem	.	.
4r	.	4r	.	4r	.	4r	.	.	.
=125	=125	=125	=125	=125	=125	=125	=125	=125	=125
2A\	.	8cc\L	.	8cc\L	.	8cc\L	cel-	2.r	2.r
.	.	8b\	.	8b\	.	8b\	.	.	.
.	.	8a\	.	8a\	.	8a\	-si-	.	.
.	.	8g\	.	8g\	.	8g\	.	.	.
4A#X\	.	8f#\	.	8f#\	.	8f#\	-tu-	.	.
.	.	8e\J	.	8e\J	.	8e\J	-di-	.	.
!	!	!LO:LB:g=original	!	!	!	!	!	!	!
=126	=126	=126	=126	=126	=126	=126	=126	=126	=126
4B\	.	2e/	.	2d#X/	.	2d#X/	-nem	2.r	2.r
4BB/	.	.	.	.	.	.	.	.	.
!LO:TX:b:t=VC&colon;	!	!	!	!	!	!	!	!	!
4B\	.	4e/	.	4e/	.	4b\	e-	.	.
!LO:LB:g=original	!	!	!	!	!	!LO:LB:g=original	!	!	!
=127	=127	=127	=127	=127	=127	=127	=127	=127	=127
2A\	.	2e/	.	2e/	.	4cc\	.	2.r	2.r
.	.	.	.	.	.	8ee\L	.	.	.
.	.	.	.	.	.	8dd\	.	.	.
4G\	.	4e/	.	4e/	.	8cc\	.	.	.
.	.	.	.	.	.	8b\J	.	.	.
!	!	!	!	!LO:LB:g=original	!	!	!	!	!
=128	=128	=128	=128	=128	=128	=128	=128	=128	=128
2F#\	.	2d#X/	.	2d#X/	.	4a\	.	2.r	2.r
.	.	.	.	.	.	8cc\L	.	.	.
.	.	.	.	.	.	8b\	.	.	.
4E\	.	4f#/	.	4e/	.	8a\	-jus	.	.
.	.	.	.	.	.	8g\J	.	.	.
=129	=129	=129	=129	=129	=129	=129	=129	=129	=129
4A\	.	8g/L	.	8g/L	.	8g/L	cel-	2.r	2.r
.	.	8f#/J	.	8f#/J	.	8f#/J	-si-	.	.
4B\	.	4e/	.	4e/	.	4e/	-tu-	.	.
4BB/	.	4d#X/	.	4d#X/	.	4d#X/	-di-	.	.
=130	=130	=130	=130	=130	=130	=130	=130	=130	=130
4E\	.	2e/	.	2e/	.	2e/	-nem	2.r	2.r
4EE/	.	.	.	.	.	.	.	.	.
4E\	.	4e/	.	4e/	.	4b\	e-	.	.
=131	=131	=131	=131	=131	=131	=131	=131	=131	=131
2A\	.	2e/	.	2e/	.	4cc\	.	2.r	2.r
.	.	.	.	.	.	8ee\L	.	.	.
.	.	.	.	.	.	8dd\	.	.	.
4G\	.	4e/	.	4e/	.	8cc\	-jus	.	.
.	.	.	.	.	.	8b\J	.	.	.
=132	=132	=132	=132	=132	=132	=132	=132	=132	=132
2F#\	.	2d#X/	.	2d#X/	.	4a\	cel-	2.r	2.r
.	.	.	.	.	.	8cc\L	.	.	.
.	.	.	.	.	.	8b\	.	.	.
4E\	.	4e/	.	4e/	.	8a\	.	.	.
.	.	.	.	.	.	8g\J	-si-	.	.
=133	=133	=133	=133	=133	=133	=133	=133	=133	=133
4A\	.	8g/L	.	8g/L	.	8g\L	-tu-	2.r	2.r
.	.	8f#/J	.	8f#/J	.	8f#\J	.	.	.
4B\	.	4e/	.	4e/	.	4e\	.	.	.
4BB/	.	4d#X/	.	4d#X/	.	4d#X\	-di-	.	.
=134	=134	=134	=134	=134	=134	=134	=134	=134	=134
!LO:TX:b:t=Da Capo	!	!	!	!	!	!	!	!LO:TX:b:t=Da Capo	!LO:TX:a:t=Da Capo
2E\	.	2G/	.	2B/	.	2e\	-nem	2.r	2.r
!	!	!LO:TX:a:t=Da Capo	!	!	!	!LO:TX:b:t=Da Capo	!	!	!
4ryy	.	4r	.	4r	.	4r	.	.	.
==	==	==	==	==	==	==	==	==	==
*-	*-	*-	*-	*-	*-	*-	*-	*-	*-
!!!system-decoration: [(s1,s2)][(s3)][(s4,s5,s6)]
!!!ENC: Berenika Jozajtis
!!!END: 2020-10-06
!!!ENC: Jan Barakat
!!!END: 2022-01-27
!!!YEC: Copyright 2022 Narodowy Instytut Fryderyka Chopina (https://polishscores.org)
!!!YEM: Licence CC BY 4.0 (https://creativecommons.org/licenses/by/4.0)
